X:0
T:The Ewie wi the Crookit Horn
G:jig
C:arr. John A MacLellan
M:6/8
L:1/8
Q:3/8=120
K:AMix
   AAA A2B|G2A BGG|AAA A2B|d2B cAA|
   d2c B2A|G2A BGG|A2B cAA|BGG A3:|
   Bee e2f|d2e dBB|cee e2f|gee f2d|
[1 Bee e2f|d2e dBB|cee efg|fdd e3:|
[2 g2e fed|e2d cAA|Bee efg|fdd e3|]
